components/Common/Svg/svgs/businessFirstApproach.svg

<svg
  width="90"
  height="90"
  viewBox="0 0 90 90"
  fill="none"
  xmlns="http://www.w3.org/2000/svg"
>
  <circle
    opacity="0.5"
    cx="45"
    cy="45"
    r="45"
    fill="#FFE603"
  ></circle>
  <path
    d="M58.75 36.25H31.25C30.5596 36.25 30 36.8096 30 37.5V57.5C30 58.1904 30.5596 58.75 31.25 58.75H58.75C59.4404 58.75 60 58.1904 60 57.5V37.5C60 36.8096 59.4404 36.25 58.75 36.25Z"
    stroke="#161616"
    stroke-width="2"
    stroke-linecap="round"
    stroke-linejoin="round"
  ></path>
  <path
    d="M38.75 36.25C38.75 34.5924 39.4085 33.0027 40.5806 31.8306C41.7527 30.6585 43.3424 30 45 30C46.6576 30 48.2473 30.6585 49.4194 31.8306C50.5915 33.0027 51.25 34.5924 51.25 36.25"
    stroke="#161616"
    stroke-width="2"
    stroke-linecap="round"
    stroke-linejoin="round"
  ></path>
  <path
    d="M30 42.5H60"
    stroke="#161616"
    stroke-width="2"
    stroke-linecap="round"
    stroke-linejoin="round"
  ></path>
  <path
    d="M54.375 62.3438C58.776 62.3438 62.3438 58.776 62.3438 54.375C62.3438 49.974 58.776 46.4062 54.375 46.4062C49.974 46.4062 46.4062 49.974 46.4062 54.375C46.4062 58.776 49.974 62.3438 54.375 62.3438Z"
    fill="#FFF281"
    stroke="#161616"
    stroke-width="2"
    stroke-linecap="round"
    stroke-linejoin="round"
  ></path>
  <path
    d="M52.5 57.5H55.3125C55.7269 57.5 56.1243 57.3354 56.4174 57.0424C56.7104 56.7493 56.875 56.3519 56.875 55.9375C56.875 55.5231 56.7104 55.1257 56.4174 54.8326C56.1243 54.5396 55.7269 54.375 55.3125 54.375H53.4375C53.0231 54.375 52.6257 54.2104 52.3326 53.9174C52.0396 53.6243 51.875 53.2269 51.875 52.8125C51.875 52.3981 52.0396 52.0007 52.3326 51.7076C52.6257 51.4146 53.0231 51.25 53.4375 51.25H56.25"
    stroke="#161616"
    stroke-width="1.5"
    stroke-linecap="round"
    stroke-linejoin="round"
  ></path>
  <path
    d="M54.375 49.7266V51.0547"
    stroke="#161616"
    stroke-width="1.5"
    stroke-linecap="round"
    stroke-linejoin="round"
  ></path>
  <path
    d="M54.375 57.6953V59.0234"
    stroke="#161616"
    stroke-width="1.5"
    stroke-linecap="round"
    stroke-linejoin="round"
  ></path>
</svg>

<svg width="90" height="90" viewBox="0 0 90 90" fill="none" xmlns="http://www.w3.org/2000/svg"><circle opacity=".5" cx="45" cy="45" r="45" fill="#FFE603"/><path d="M58.75 36.25h-27.5c-.69 0-1.25.56-1.25 1.25v20c0 .69.56 1.25 1.25 1.25h27.5c.69 0 1.25-.56 1.25-1.25v-20c0-.69-.56-1.25-1.25-1.25ZM38.75 36.25a6.25 6.25 0 0 1 12.5 0M30 42.5h30" stroke="#161616" stroke-width="2" stroke-linecap="round" stroke-linejoin="round"/><path d="M54.375 62.344a7.969 7.969 0 1 0 0-15.938 7.969 7.969 0 0 0 0 15.938Z" fill="#FFF281" stroke="#161616" stroke-width="2" stroke-linecap="round" stroke-linejoin="round"/><path d="M52.5 57.5h2.813a1.563 1.563 0 0 0 0-3.125h-1.876a1.563 1.563 0 0 1 0-3.125h2.813M54.375 49.727v1.328M54.375 57.695v1.328" stroke="#161616" stroke-width="1.5" stroke-linecap="round" stroke-linejoin="round"/></svg>
